X:1
T:Marblehead, LM
T:John Barnard, 1752
T:Marblehead, LM
T:Public Domain
C:John Barnard, 1752
Z:Public Domain
%%score ( 1 2 ) 3
L:1/8
M:none
K:G
V:1 treble 
V:2 treble 
V:3 bass 
V:1
 [GB]4 [Ad]2 [GB]2 | [Ad]2 B2 [Gc]2 [Ge]2 | [Fd]4 | [GB]4 [Bd]2 [ce]2 | [Ad]2 [GB]2 [ce]2 [Bd]2 | %5
 [Ad]4 | [Fd]4 [Ge]2 [Bd]2 | [Ad]2 [ce]2 [Bd]2 [^ce]2 | d4 | [Ad]4 [Bd]2 [ce]2 | %10
 [Ad]2 [GB]2 [Gc]2 [FA]2 | G8 |] %12
V:2
 x8 | x2 B2 x4 | x4 | x8 | x8 | x4 | x8 | x8 | d4 | x8 | x8 | G8 |] %12
V:3
 [G,D]4 [D,F,]2 [D,G,]2 | [D,F,]2 [D,G,]2 [E,G,]2 [C,G,]2 | [D,G,]4 | [D,G,]4 [D,G,]2 [C,E,]2 | %4
 [D,F,]2 [D,G,]2 [C,E,]2 [G,,D,]2 | [G,,F,]4 | [D,B,]4 [C,E,]2 [D,G,]2 | %7
 [D,F,]2 [C,E,]2 [F,G,]2 [E,A,]2 | [F,G,]4 | [D,F,]4 [D,G,]2 [C,E,]2 | %10
 [B,,D,]2 [D,G,]2 [C,G,]2 [B,,D,]2 | [G,,B,,]8 |] %12

